X:788
T:Captain Monro's Favourite
S:Gesto Collection, 1895
N:Transposed from C for comparison
Z:Nigel Gatherer
M:2/4
L:1/8
K:G
D | DG GA | B2 d>B | A>G AB | AG GB/G/
    DG GA | B2 d>B | AG  AB | AG G    :|
G | BB Bc | dd dg  | ee  ec | ed dc    |
    BB/B/ Bc | dd/d/ dg | ee ec | d3 z/c/ |
    BB BB | B3 d/B/ | AG AB | AG GB/G/ |
    DG GA | B2 d>B | AG  AB | AG G    |]
<end>
<start>
